flaticon/hand-gestures/tap-105.svg

<svg xmlns="http://www.w3.org/2000/svg" width="32" height="32" viewBox="0 0 24 24">
    <path d="M 4 0 C 1.800781 0 0 1.800781 0 4 C 0 6.199219 1.800781 8 4 8 C 6.199219 8 8 6.199219 8 4 C 8 1.800781 6.199219 0 4 0 Z M 4 7.199219 C 2.238281 7.199219 0.800781 5.761719 0.800781 4 C 0.800781 2.238281 2.238281 0.800781 4 0.800781 C 5.761719 0.800781 7.199219 2.238281 7.199219 4 C 7.199219 5.761719 5.761719 7.199219 4 7.199219 Z M 4 7.199219"/>
    <path d="M6 3.601562L4.398438 3.601562 4.398438 2C4.398438 1.761719 4.238281 1.601562 4 1.601562 3.761719 1.601562 3.601562 1.761719 3.601562 2L3.601562 3.601562 2 3.601562C1.761719 3.601562 1.601562 3.761719 1.601562 4 1.601562 4.238281 1.761719 4.398438 2 4.398438L3.601562 4.398438 3.601562 6C3.601562 6.238281 3.761719 6.398438 4 6.398438 4.238281 6.398438 4.398438 6.238281 4.398438 6L4.398438 4.398438 6 4.398438C6.238281 4.398438 6.398438 4.238281 6.398438 4 6.398438 3.761719 6.238281 3.601562 6 3.601562zM22.199219 8.398438C21.839844 8.398438 21.480469 8.519531 21.199219 8.761719L21.199219 8.398438C21.199219 7.441406 20.441406 6.398438 19.398438 6.398438 19.039062 6.398438 18.679688 6.519531 18.398438 6.761719 18.398438 5.839844 17.601562 4.800781 16.601562 4.800781 16.238281 4.800781 15.878906 4.921875 15.601562 5.160156L15.601562 2C15.601562 1.039062 14.839844 0 13.800781 0 12.761719 0 12 1.039062 12 2L12 10.480469C11.640625 9.71875 11.160156 9 10.679688 8.519531 10.039062 7.878906 8.761719 7.839844 8.039062 8.441406 7.839844 8.640625 7.160156 9.359375 8.078125 10.640625 8.921875 11.839844 9.601562 14.480469 9.601562 16 9.601562 19.199219 11.679688 20.640625 12.398438 21.039062L12.398438 23.601562C12.398438 23.839844 12.558594 24 12.800781 24 13.039062 24 13.199219 23.839844 13.199219 23.601562L13.199219 20.800781C13.199219 20.640625 13.121094 20.519531 12.960938 20.441406 12.839844 20.398438 10.398438 19.238281 10.398438 16 10.398438 14.519531 9.761719 11.601562 8.71875 10.160156 8.441406 9.800781 8.199219 9.320312 8.558594 9.039062 8.960938 8.71875 9.761719 8.71875 10.121094 9.078125 11.121094 10.078125 12 12.199219 12 13.199219 12 13.441406 12.160156 13.601562 12.398438 13.601562 12.640625 13.601562 12.800781 13.441406 12.800781 13.199219L12.800781 2C12.800781 1.441406 13.238281.800781 13.800781.800781 14.359375.800781 14.800781 1.441406 14.800781 2L14.800781 10.800781C14.800781 11.039062 14.960938 11.199219 15.199219 11.199219 15.441406 11.199219 15.601562 11.039062 15.601562 10.800781L15.601562 6.800781C15.601562 6.238281 16.039062 5.601562 16.601562 5.601562 17.160156 5.601562 17.601562 6.238281 17.601562 6.800781L17.601562 11.199219C17.601562 11.441406 17.761719 11.601562 18 11.601562 18.238281 11.601562 18.398438 11.441406 18.398438 11.199219L18.398438 8.398438C18.398438 7.839844 18.839844 7.199219 19.398438 7.199219 19.960938 7.199219 20.398438 7.839844 20.398438 8.398438L20.398438 10.320312C20.398438 10.359375 20.398438 10.359375 20.398438 10.398438L20.398438 12C20.398438 12.238281 20.558594 12.398438 20.800781 12.398438 21.039062 12.398438 21.199219 12.238281 21.199219 12L21.199219 10.320312C21.238281 9.800781 21.679688 9.199219 22.199219 9.199219 22.761719 9.199219 23.199219 9.839844 23.199219 10.398438L23.199219 16C23.199219 19.039062 23.199219 19.039062 22.078125 20.558594 22 20.640625 22 20.761719 22 20.839844L22 23.601562C22 23.839844 22.160156 24 22.398438 24 22.640625 24 22.800781 23.839844 22.800781 23.601562L22.800781 20.921875C24 19.320312 24 19.121094 24 16L24 10.398438C24 9.441406 23.238281 8.398438 22.199219 8.398438zM22.199219 8.398438"/>
    <path d="M18 20.398438C18.238281 20.398438 18.398438 20.238281 18.398438 20 18.398438 19.761719 18.238281 19.601562 18 19.601562L16.800781 19.601562C16.558594 19.601562 16.398438 19.761719 16.398438 20 16.398438 20.238281 16.558594 20.398438 16.800781 20.398438zM18.398438 21.199219L16.398438 21.199219C16.160156 21.199219 16 21.359375 16 21.601562 16 21.839844 16.160156 22 16.398438 22L18.398438 22C18.640625 22 18.800781 21.839844 18.800781 21.601562 18.800781 21.359375 18.640625 21.199219 18.398438 21.199219zM18.398438 21.199219"/>
</svg>

<svg xmlns="http://www.w3.org/2000/svg" width="32" height="32" viewBox="0 0 24 24">
    <path d="M4 0C1.8 0 0 1.8 0 4s1.8 4 4 4 4-1.8 4-4-1.8-4-4-4zm0 7.2A3.206 3.206 0 0 1 .8 4C.8 2.238 2.239.8 4 .8 5.762.8 7.2 2.239 7.2 4c0 1.762-1.438 3.2-3.2 3.2zm0 0"/>
    <path d="M6 3.602H4.398V2c0-.238-.16-.398-.398-.398-.238 0-.398.16-.398.398v1.602H2c-.238 0-.398.16-.398.398 0 .238.16.398.398.398h1.602V6c0 .238.16.398.398.398.238 0 .398-.16.398-.398V4.398H6c.238 0 .398-.16.398-.398 0-.238-.16-.398-.398-.398zm0 0M22.2 8.398c-.36 0-.72.122-1 .364v-.364c0-.957-.759-2-1.802-2-.359 0-.718.122-1 .364 0-.922-.796-1.961-1.796-1.961-.364 0-.723.12-1 .36V2c0-.96-.762-2-1.801-2C12.76 0 12 1.04 12 2v8.48c-.36-.761-.84-1.48-1.32-1.96-.64-.641-1.918-.68-2.64-.079-.2.2-.88.918.038 2.2.844 1.199 1.524 3.84 1.524 5.359 0 3.2 2.078 4.64 2.796 5.04v2.562c0 .238.16.398.403.398.238 0 .398-.16.398-.398V20.8c0-.16-.078-.281-.238-.36-.121-.043-2.563-1.203-2.563-4.441 0-1.48-.636-4.398-1.68-5.84-.277-.36-.519-.84-.16-1.12.403-.321 1.204-.321 1.563.038 1 1 1.879 3.121 1.879 4.121 0 .242.16.403.398.403.243 0 .403-.16.403-.403V2c0-.559.437-1.2 1-1.2.558 0 1 .641 1 1.2v8.8c0 .24.16.4.398.4.242 0 .403-.16.403-.4v-4c0-.562.437-1.198 1-1.198.558 0 1 .636 1 1.199v4.398c0 .242.16.403.398.403.238 0 .398-.16.398-.403V8.4c0-.56.442-1.2 1-1.2.563 0 1 .64 1 1.2V12c0 .238.16.398.403.398.238 0 .398-.16.398-.398v-1.68c.04-.52.48-1.12 1-1.12.563 0 1 .64 1 1.198V16c0 3.04 0 3.04-1.12 4.559-.079.082-.079.203-.079.28v2.763c0 .238.16.398.398.398.243 0 .403-.16.403-.398v-2.68C24 19.32 24 19.122 24 16v-5.602c0-.957-.762-2-1.8-2zm0 0"/>
    <path d="M18 20.398c.238 0 .398-.16.398-.398 0-.238-.16-.398-.398-.398h-1.2c-.241 0-.402.16-.402.398 0 .238.16.398.403.398zm0 0M18.398 21.2h-2c-.238 0-.398.16-.398.402 0 .238.16.398.398.398h2c.243 0 .403-.16.403-.398 0-.243-.16-.403-.403-.403zm0 0"/>
</svg>
